X: 24096
T: Long Note, The
R: slide
M: 12/8
K: Dmixolydian
|:DED D2A A2G E2F|G2E EDE c2E d2E|
DED D2A A2G E2F|1 ABA G2A E2A G2E:|2 ABA G2A E2A D3||
ded d2A c2A d2A|c2A d2A c2A G2A|
ded d2A c2A d2g|e2a a2g efe d2A|
ded d2A c2A d2A|c2A d2A c2A G2F|
D2E F2G A2d d2c|ABA G2A E2A D3||
K:Dmaj
aba a2b a2f d2f|gfg g2a g2e c2e|
aba a2b a2f d2f|e2a a2g efe d2f|
aba a2b a2f d2f|g2e f2d e2d c2B|
A2B c2d efe d2c|ABA G2A E2A G2E||

